X:1
T:BWV253 Soprano
C:Music21
L:1/4
M:4/4
K:A
V:1 name="Melody" clef=treble
%%MIDI program 1 40
 c/d/ e c A | B c d c | B A A3/2 B/ | c c B/A/ B | A3  c | B c A F | B A B c | A A A3/2 B/ |
V:2 name="Chords" clef=treble
%%MIDI program 2 0
[A,CE] [A,CE] [CEA] [A,CE] | [E,^GB,] [A,CE] [FAd] [E,^GB,] | [E,^GB,] [A,CE] [A,CE]3/2 [E,^GB,]/ | [A,CE] [FAd] [E,^GB,] [E,^GB,] | [A,CE] [A,CE] [CEA] [A,CE] | [E,^GB,] [A,CE] [DFA] [DFA] | [E,^GB,] [CEA] [E,^GB,] [A,CE] | [DFA] [CEA] [A,CE]3/2 [E,^GB,]/ |]

================================================================================
ITERATION 3 — APPROVED
================================================================================

--- Harmonizer reasoning ---
Key:     A major
Phrases: m4, m8
Cadences: m4 half cadence V; m8 perfect authentic cadence I
Arc:     m1–4: I–V–I–ii–V; m5–8: I–IV–V–I with smooth voice leading
Notes:   Fix m2 to I–V–I–V; fix m4 to avoid maj7 clash on C# by using V or I; smooth V approach into m4

--- ABC ---
